!!!!SEGMENT: pl-kk--kk-i-7--050-001_cadeac-pierre--missa-ego-sum-kyrie.krn
!!!cenid: 16xx:864
!!!COM: Cadéac, Pierre
!!!COM-rismid: pe30006011
!!!CDT: ~1500-~1599
!!!CNT: German
!!!OPR: Missa Ego sum
!!!OTL: Kyrie
!!!OMV: 001
!!!PDT:
!!!AGN: Sacred; Mass
!!!SMS-siglum: PL-Kk
!!!SMS-shelfmark: Kk.I.7
!!!SMS-shelfwork: 050-001 M
!!!SMS-variant:
!!!SMS-altvar:
!!!NIFC-rismid: 300258127
!!!URL-scan: http://repozytorium.nifc.pl/skany/pl-kk-nut--i-7
!!!ONB-nifc: UWAGA: C (skan 0046-0047, s.86-88), A (0130-0131, s.80-82), T(0206-0207, s.75-77), B(0295, s.76-77). Części Mszy: 1. Kyrie, 2. Et in terra, 3. Sanctus
**kern	**text	**kern	**text	**kern	**text	**kern	**text
*part4	*part4	*part3	*part3	*part2	*part2	*part1	*part1
*staff4	*staff4	*staff3	*staff3	*staff2	*staff2	*staff1	*staff1
*Ibass	*	*Itenor	*	*Ialto	*	*Ivox	*
*I"BASSVS.	*	*I"TENOR.	*	*I"ALTVS.	*	*I"CANTVS.	*
*I'B	*	*I'T	*	*I'A	*	*I'S	*
*clefC4	*	*clefC3	*	*clefC2	*	*clefG2	*
*k[]	*	*k[]	*	*k[]	*	*k[]	*
*G:	*	*G:	*	*G:	*	*G:	*
*M2/1	*	*M2/1	*	*M2/1	*	*M2/1	*
*met(c|)	*	*met(c|)	*	*met(c|)	*	*met(c|)	*
=1-	=1-	=1-	=1-	=1-	=1-	=1-	=1-
*	*	*	*	*lig	*	*	*
!	!	!	!	!	!	!LO:TX:t=P:problem:kreska pseudotaktowa	!
00r	.	00r	.	1c	Ky-	00r	.
.	.	.	.	1.g	.	.	.
*	*	*	*	*Xlig	*	*	*
=2-	=2-	=2-	=2-	=2-	=2-	=2-	=2-
.	.	.	.	.	.	.	.
*	*	*	*	*2\right	*	*	*
.	.	.	.	2g\	-ri-	.	.
.	.	.	.	1f	-e	.	.
=3-	=3-	=3-	=3-	=3-	=3-	=3-	=3-
*	*	*	*	*	*	*lig	*
!	!	!LO:TX:t=P:problem:kreska pseudotaktowa	!	!	!	!	!
00r	.	00r	.	2e\	e-	1g	Ky-
.	.	.	.	1g	.	.	.
.	.	.	.	.	.	1.dd	.
.	.	.	.	4f\	.	.	.
.	.	.	.	4e\	.	.	.
*	*	*	*	*	*	*Xlig	*
=4-	=4-	=4-	=4-	=4-	=4-	=4-	=4-
*	*	*	*	*	*	*2\right	*
.	.	.	.	2d/	.	.	.
.	.	.	.	2d/	.	2dd\	-ri-
.	.	.	.	2e\	.	1cc	-e
.	.	.	.	2f\	.	.	.
=5-	=5-	=5-	=5-	=5-	=5-	=5-	=5-
!	!	!	!	!LO:TX:t=P:problem:kreska pseudotaktowa	!	!	!
0rB	.	2rA	.	1g	.	2b\	e-
.	.	2G/	Ky-	.	.	1dd	-lei-
.	.	2B/	-ri-	2d/	.	.	.
*	*	*2\right	*	*	*	*	*
.	.	2c\	-e	1g\	.	4cc\	.
.	.	.	.	.	.	4b\	.
=6-	=6-	=6-	=6-	=6-	=6-	=6-	=6-
!LO:TX:t=P:problem:kreska pseudotaktowa	!	!	!	!	!	!	!
1rB	.	1d	e-	.	.	1a	.
.	.	.	.	2f\	.	.	.
*lig	*	*	*	*	*	*	*
!	!	!	!	!	!	!LO:TX:t=P:problem:kreska pseudotaktowa	!
1C	Ky-	1.e	.	2g\	.	0.g	-son
.	.	.	.	1c/	-lei-	.	.
=7-	=7-	=7-	=7-	=7-	=7-	=7-	=7-
1.G	-ri-	.	.	.	.	.	.
!	!	!LO:TX:t=P:problem:kreska pseudotaktowa	!	!	!	!	!
.	.	2d\	.	4B/	.	.	.
.	.	.	.	4A/	.	.	.
!	!	!	!	!LO:TX:t=P:problem:kreska pseudotaktowa	!	!	!
.	.	2d\	.	1B	-son	.	.
*Xlig	*	*	*	*	*	*	*
2G/	-e	4c/	.	.	.	.	.
.	.	4B/	.	.	.	.	.
=8-	=8-	=8-	=8-	=8-	=8-	=8-	=8-
1F	.	1A	.	2rc	.	1r	.
.	.	.	.	2c/	Ky-	.	.
2E/	e-	4G/	.	1.g	.	2rg	.
.	.	4A/	.	.	.	.	.
*	*	*	*	*	*	*	*ij
1G/	-lei-	4B/	.	.	.	2g/	Ky-
.	.	4c/	.	.	.	.	.
=9-	=9-	=9-	=9-	=9-	=9-	=9-	=9-
.	.	4d\	.	.	.	2b\	-ri-
.	.	4G/	.	.	.	.	.
4F/	.	1c	.	2g\	-ri-	2cc\	.
4E/	.	.	.	.	.	.	.
1D	-son	.	.	1f	-e	1dd	-e
!	!	!LO:TX:t=P:problem:kreska pseudotaktowa	!	!	!	!	!
.	.	2B/	.	.	.	.	.
=10-	=10-	=10-	=10-	=10-	=10-	=10-	=10-
!LO:TX:t=P:problem:kreska pseudotaktowa	!	!	!	!	!	!	!
1C	.	1.c	-lei-	2.e/	.	1.ee	e-
!	!	!	!	!LO:TX:t=P:problem:kreska pseudotaktowa	!	!	!
.	.	.	.	4d/	.	.	.
0rB	.	.	.	4e/	.	.	.
.	.	.	.	4f/	e-	.	.
!	!	!	!	!	!	!LO:TX:t=P:problem:kreska pseudotaktowa	!
.	.	2G/	-son	1g\	.	2dd\	.
=11-	=11-	=11-	=11-	=11-	=11-	=11-	=11-
!	!	!LO:TX:t=P:problem:kreska pseudotaktowa	!	!	!	!	!
.	.	1G	.	.	.	4dd\	.
.	.	.	.	.	.	4cc\	.
.	.	.	.	4f/	-lei-	4dd\	.
!	!	!	!	!LO:TX:t=P:problem:kreska pseudotaktowa	!	!	!
.	.	.	.	4e/	.	4ee\	.
2rE	.	00r	.	2d/	.	2ff\	.
*	*ij	*	*	*	*	*	*
2C/	Ky-	.	.	1g\	.	2.ee\	.
=12-	=12-	=12-	=12-	=12-	=12-	=12-	=12-
2E/	-ri-	.	.	.	.	.	.
.	.	.	.	.	.	4dd\	.
2F/	-e	.	.	4f/	.	1cc	.
.	.	.	.	4e/	.	.	.
1G	e-	.	.	1d	-son	.	.
!	!	!	!	!	!	!LO:TX:t=P:problem:kreska pseudotaktowa	!
.	.	.	.	.	.	2b\	.
=13-	=13-	=13-	=13-	=13-	=13-	=13-	=13-
!LO:TX:t=P:problem:kreska pseudotaktowa	!	!	!	!	!	!	!
(<1.A	.	.	.	2c/	.	1cc	.
.	.	.	.	1c	Ky-	.	.
!	!	!LO:TX:t=P:problem:kreska pseudotaktowa	!	!	!	!	!
.	.	1r	.	.	.	2a/	.
2G/)	.	.	.	1g\	.	1b\	.
=14-	=14-	=14-	=14-	=14-	=14-	=14-	=14-
*	*	*lig	*	*	*	*	*
2G/	.	1G	Ky-	.	.	.	.
4F/	-lei-	.	.	2g\	-ri-	4a/	-lei-
4E/	.	.	.	.	.	4g/	.
!LO:TX:t=P:problem:kreska pseudotaktowa	!	!	!	!	!	!	!
!	!	!	!	!LO:SIC:v:custos:e	!	!	!
!	!	!	!	!LO:TX:t=P:problem:kreska pseudotaktowa	!	!	!
!	!	!	!	!	!	!LO:TX:t=P:problem:kreska pseudotaktowa	!
1D	-son	1.d	.	0f	-e	0a	-son
*	*Xij	*	*	*	*	*	*Xij
*	*	*Xlig	*	*	*	*	*
!	!	!	!	!LO:LB:g=original	!	!	!
=15-	=15-	=15-	=15-	=15-	=15-	=15-	=15-
2rE	.	.	.	.	.	.	.
2D/	Ky-	2d\	-ri-	.	.	.	.
2E/	-ri-	1c	-e-	2e\	e-	1r	.
2F/	-e	.	.	1a\	.	.	.
=16-	=16-	=16-	=16-	=16-	=16-	=16-	=16-
1G	e-	2B/	-lei-	.	.	2rg	.
.	.	2d\	.	2g\	.	2g/	Ky-
!	!	!LO:TX:t=P:problem:kreska pseudotaktowa	!	!	!	!	!
2D/	.	1d	-son	4f\	.	1.dd	-ri-
.	.	.	.	4e\	.	.	.
1d\	.	.	.	2f\	.	.	.
=17-	=17-	=17-	=17-	=17-	=17-	=17-	=17-
.	.	1r	.	2d/	-lei-	.	.
4c\	-lei-	.	.	2e\	.	2dd\	-e
4B\	.	.	.	.	.	.	.
1A	.	2r	.	2f\	.	1cc	e-
.	.	2c\	Ky-	0.d/	.	.	.
=18-	=18-	=18-	=18-	=18-	=18-	=18-	=18-
!LO:TX:t=P:problem:kreska pseudotaktowa	!	!	!	!	!	!	!
0G	-son	1.g	.	.	.	2b\	.
.	.	.	.	.	.	1dd	.
.	.	2g\	-ri-	.	.	4cc\	.
!	!	!	!	!	!	!LO:TX:t=P:problem:kreska pseudotaktowa	!
.	.	.	.	.	.	4b\	.
!	!	!	!	!	!	!LO:LB:g=original	!
=19-	=19-	=19-	=19-	=19-	=19-	=19-	=19-
1r	.	1f	-e	.	.	2.a/	.
.	.	.	.	0c	-son	.	.
.	.	.	.	.	.	4b\	.
2rE	.	2e\	e-	.	.	4cc\	.
.	.	.	.	.	.	4dd\	.
*	*ij	*	*	*	*	*	*
2C/	Ky-	1g\	-lei-	.	.	2.ee\	.
=20-	=20-	=20-	=20-	=20-	=20-	=20-	=20-
2E/	-ri-	.	.	.	.	.	.
.	.	.	.	.	.	4dd\	.
2F/	-e	4f\	.	2rA	.	1cc	.
!	!	!LO:SIC:v:custos:d	!	!	!	!	!
!	!	!LO:TX:t=P:problem:kreska pseudotaktowa	!	!	!	!	!
.	.	4e\	.	.	.	.	.
!	!	!LO:LB:g=original	!	!	!	!	!
1.G	e-	2.d\	.	2ryy	.	.	.
.	.	.	.	2G/	Ky-	2.b/	.
.	.	4c/	.	.	.	.	.
=21-	=21-	=21-	=21-	=21-	=21-	=21-	=21-
.	.	2B/	.	2d/	-ri-	.	.
.	.	.	.	.	.	4a/	-lei-
2C/	.	2c/	.	2e/	-e-	1g	.
1D	-lei-	1A	.	1d	-ley-	.	.
.	.	.	.	.	.	2f#X/	.
=22-	=22-	=22-	=22-	=22-	=22-	=22-	=22-
0G;>	-son	0G;>	-son.	0d;>	-son	0g;>	-son
*	*Xij	*	*	*	*	*	*
!LO:LB:g=original	!	!	!	!	!	!	!
=23||	=23||	=23||	=23||	=23||	=23||	=23||	=23||
*M2/1	*	*M2/1	*	*M2/1	*	*M2/1	*
*met(c|)	*	*met(c|)	*	*met(c|)	*	*met(c|)	*
00r	.	00r	.	0r	.	1dd	Chri-
.	.	.	.	.	.	2.cc\	-ste
.	.	.	.	.	.	4dd\	.
=24-	=24-	=24-	=24-	=24-	=24-	=24-	=24-
.	.	.	.	1r	.	2ee\	.
.	.	.	.	.	.	1dd	e-
.	.	.	.	1g	Chri-	.	.
.	.	.	.	.	.	4cc\	-lei-
.	.	.	.	.	.	4b\	.
=25-	=25-	=25-	=25-	=25-	=25-	=25-	=25-
!	!	!LO:TX:t=P:problem:kreska pseudotaktowa	!	!	!	!LO:TX:t=P:problem:kreska pseudotaktowa	!
00r	.	0r	.	2.f\	.	1a	-ſon
.	.	.	.	4g\	-ste	.	.
.	.	.	.	2a\	.	2r	.
*	*	*	*	*	*	*	*ij
.	.	.	.	1g\	.	2dd\	Chri-
=26-	=26-	=26-	=26-	=26-	=26-	=26-	=26-
.	.	2r	.	.	.	2dd\	-ste
!	!	!LO:TX:t=P:problem:kreska pseudotaktowa	!	!	!	!	!
.	.	2d\	Chri-	4f\	.	2dd\	e-
.	.	.	.	4e\	e-	.	.
.	.	2d\	-ste	1f	.	2.a/	-lei-
!	!	!LO:TX:t=P:problem:kreska pseudotaktowa	!	!	!	!	!
.	.	2d\	e-	.	.	.	.
.	.	.	.	.	.	4b/	.
=27-	=27-	=27-	=27-	=27-	=27-	=27-	=27-
!LO:TX:t=P:problem:kreska pseudotaktowa	!	!	!	!	!	!	!
1rB	.	4A/	-lei-	2.e\	-lei-	4cc\	.
.	.	4B/	.	.	.	4dd\	.
.	.	4c/	.	.	.	1ee	.
.	.	4d/	.	4f\	.	.	.
2r	.	2e\	.	2g\	.	.	.
*2\right	*	*	*	*	*	*	*
2d\	Chri-	2.f\	.	2.a\	.	2dd\	.
=28-	=28-	=28-	=28-	=28-	=28-	=28-	=28-
!	!	!	!	!	!	!LO:TX:t=P:problem:kreska pseudotaktowa	!
2d\	.	.	.	.	.	0a	-ſon
*	*	*	*	*	*	*	*Xij
.	.	4e\	.	4g\	.	.	.
!LO:TX:t=P:problem:kreska pseudotaktowa	!	!	!	!LO:TX:t=P:problem:kreska pseudotaktowa	!	!	!
2d\	-ste	1d	.	2f\	.	.	.
1A	e-	.	.	1e	-son	.	.
.	.	2c\	.	.	.	.	.
=29-	=29-	=29-	=29-	=29-	=29-	=29-	=29-
!	!	!LO:TX:t=P:problem:kreska pseudotaktowa	!	!	!	!LO:TX:t=P:problem:kreska pseudotaktowa	!
2B\	.	0.d	-son	1d	.	0r	.
1G	-lei-	.	.	.	.	.	.
.	.	.	.	1g	.	.	.
4F/	.	.	.	.	.	.	.
4E/	.	.	.	.	.	.	.
=30-	=30-	=30-	=30-	=30-	=30-	=30-	=30-
*	*	*	*	*	*ij	*	*
!LO:TX:t=P:problem:kreska pseudotaktowa	!	!	!	!	!	!	!
1D	-son	.	.	2.f\	e-	1dd	X-
.	.	.	.	4g\	-lei-	.	.
0r	.	0r	.	2a\	.	2cc\	-te
.	.	.	.	1g\	.	2dd\	e-
=31-	=31-	=31-	=31-	=31-	=31-	=31-	=31-
.	.	.	.	.	.	2ee\	-lei-
.	.	.	.	4f\	.	1dd	.
.	.	.	.	4e\	.	.	.
*	*ij	*	*	*	*	*	*
!	!	!LO:TX:t=P:problem:kreska pseudotaktowa	!	!LO:TX:t=P:problem:kreska pseudotaktowa	!	!	!
1G	Chri-	1r	.	1d	-son	.	.
*	*	*	*	*	*Xij	*	*
.	.	.	.	.	.	4cc\	.
.	.	.	.	.	.	4b\	.
=32-	=32-	=32-	=32-	=32-	=32-	=32-	=32-
2F/	-ste	1d	X-	00r	.	2a/	.
2G/	e-	.	.	.	.	1g	.
1A	-lei-	2.c\	-te	.	.	.	.
.	.	.	.	.	.	2f/	.
.	.	4d\	e-	.	.	.	.
=33-	=33-	=33-	=33-	=33-	=33-	=33-	=33-
!LO:TX:t=P:problem:kreska pseudotaktowa	!	!	!	!	!	!LO:TX:t=P:problem:kreska pseudotaktowa	!
1G	.	2e\	.	.	.	1g	-son
.	.	1d	.	.	.	.	.
2.D/	.	.	.	.	.	00r	.
.	.	4c/	.	.	.	.	.
4E/	.	4B/	.	.	.	.	.
=34-	=34-	=34-	=34-	=34-	=34-	=34-	=34-
4F/	.	2.A/	.	0r	.	.	.
4G/	.	.	.	.	.	.	.
1A	.	.	.	.	.	.	.
!	!	!LO:TX:t=P:problem:kreska pseudotaktowa	!	!	!	!	!
.	.	4B/	.	.	.	.	.
.	.	4c\	.	.	.	.	.
.	.	4d\	.	.	.	.	.
!LO:TX:t=P:problem:kreska pseudotaktowa	!	!	!	!	!	!	!
2G/	.	2.e\	-lei-	.	.	.	.
=35-	=35-	=35-	=35-	=35-	=35-	=35-	=35-
!	!	!	!	!LO:TX:t=P:problem:kreska pseudotaktowa	!	!	!
2F/	.	.	.	1r	.	.	.
.	.	4d\	.	.	.	.	.
4E/	.	1d	.	.	.	.	.
4D/	.	.	.	.	.	.	.
!	!	!	!	!LO:PB:g=original	!	!	!
!	!	!	!	!	!	!LO:SIC:v:custos:dd	!
!	!	!	!	!	!	!LO:TX:t=P:problem:kreska pseudotaktowa	!
1E	.	.	.	1g	X-	0r	.
.	.	2c\	.	.	.	.	.
!	!	!	!	!	!	!LO:LB:g=original	!
=36-	=36-	=36-	=36-	=36-	=36-	=36-	=36-
!LO:TX:t=P:problem:kreska pseudotaktowa	!	!	!	!	!	!	!
1D	-son	1.d	.	2.f\	-te	.	.
*	*Xij	*	*	*	*	*	*
.	.	.	.	4g\	.	.	.
0r	.	.	.	2a\	e-	2r	.
*	*	*	*	*	*	*	*ij
.	.	2G/	-son	2g\	.	2dd\	X-
=37-	=37-	=37-	=37-	=37-	=37-	=37-	=37-
!	!	!LO:TX:t=P:problem:kreska pseudotaktowa	!	!	!	!	!
.	.	1G	.	2.d/	.	2dd\	-te
!	!	!	!	!	!	!LO:TX:t=P:problem:kreska pseudotaktowa	!
.	.	.	.	.	.	2dd\	e-
.	.	.	.	4e/	.	.	.
!LO:TX:t=P:problem:kreska pseudotaktowa	!	!	!	!	!	!	!
!	!	!LO:TX:t=P:problem:kreska pseudotaktowa	!	!	!	!	!
1r	.	00r	.	4f\	.	4a/	-lei-
.	.	.	.	4g\	.	4b/	.
.	.	.	.	2.a\	-lei-	4cc/	.
.	.	.	.	.	.	4dd/	.
=38-	=38-	=38-	=38-	=38-	=38-	=38-	=38-
2r	.	.	.	.	.	2ee\	.
.	.	.	.	4g\	.	.	.
2d\	X-	.	.	4f\	.	2.ff\	.
.	.	.	.	4e\	.	.	.
2d\	-te	.	.	2.f\	.	.	.
.	.	.	.	.	.	4ee\	.
!LO:TX:t=P:problem:kreska pseudotaktowa	!	!	!	!	!	!	!
2d\	e-	.	.	.	.	1dd\	.
.	.	.	.	4g\	.	.	.
=39-	=39-	=39-	=39-	=39-	=39-	=39-	=39-
1A	-lei-	.	.	1e	.	.	.
!	!	!	!	!	!	!LO:TX:t=P:problem:kreska pseudotaktowa	!
.	.	.	.	.	.	2cc\	.
!	!	!LO:LB:g=original	!	!	!	!	!
!	!	!	!	!LO:TX:t=P:problem:kreska pseudotaktowa	!	!	!
2B\	.	2rf	.	0d	-son	1dd,	-son
*	*	*	*	*	*	*	*Xij
2.G/	.	2g\	X-	.	.	.	.
=40-	=40-	=40-	=40-	=40-	=40-	=40-	=40-
.	.	2g\	-te	.	.	2.dd\	X-
4F/	.	.	.	.	.	.	.
4G/	.	2g\	e-	.	.	.	.
!LO:TX:t=P:problem:kreska pseudotaktowa	!	!	!	!	!	!	!
4A/	.	.	.	.	.	4cc\	-te
4B\	.	2d\	-lei-	2rc	.	1b	.
4c\	.	.	.	.	.	.	.
2d\	.	1f\	.	1d/	X-	.	.
=41-	=41-	=41-	=41-	=41-	=41-	=41-	=41-
1A	.	.	.	.	.	2a/	e-
!	!	!LO:TX:t=P:problem:kreska pseudotaktowa	!	!	!	!	!
.	.	2e\	.	2c/	-te	2cc\	-le-
2.D/	.	1d	.	0f	e-	2b/	.
.	.	.	.	.	.	2.a/	.
4E/	.	.	.	.	.	.	.
=42-	=42-	=42-	=42-	=42-	=42-	=42-	=42-
2F/	.	2c/	.	.	.	.	.
.	.	.	.	.	.	4g/	-i-
2G/	.	2B/	.	.	.	1g	.
1D	-son	1A	.	1d	-ley-	.	.
!	!	!	!	!	!	!LO:TX:t=P:problem:# above	!
.	.	.	.	.	.	2f#X/	.
=43-	=43-	=43-	=43-	=43-	=43-	=43-	=43-
!LO:TX:t=P:problem:kreska pseudotaktowa	!	!LO:TX:t=P:problem:kreska pseudotaktowa	!	!	!	!	!
0G;>	.	0B;>	-son	0d	-son.	0g;>	-son.
!LO:LB:g=original	!	!	!	!	!	!	!
=44||	=44||	=44||	=44||	=44||	=44||	=44||	=44||
*M2/1	*	*M2/1	*	*M2/1	*	*M2/1	*
*met(c|)	*	*met(c|)	*	*met(c|)	*	*met(c|)	*
00r	.	00r	.	1.g	Ky-	0r	.
.	.	.	.	2f\	-ri-	.	.
=45-	=45-	=45-	=45-	=45-	=45-	=45-	=45-
!	!	!	!	!	!	!LO:TX:t=P:problem:kreska pseudotaktowa	!
.	.	.	.	1a	-e	1r	.
.	.	.	.	1g	.	1.dd	Ky-
=46-	=46-	=46-	=46-	=46-	=46-	=46-	=46-
00r	.	0r	.	2d/	e-	.	.
.	.	.	.	1a	.	2cc\	-ri-
.	.	.	.	.	.	1ee	-e
.	.	.	.	2cc\	.	.	.
=47-	=47-	=47-	=47-	=47-	=47-	=47-	=47-
!	!	!LO:TX:t=P:problem:kreska pseudotaktowa	!	!	!	!	!
.	.	1r	.	2b\	.	1dd	.
.	.	.	.	2g\	.	.	.
!	!	!	!	!LO:TX:t=P:problem:kreska pseudotaktowa	!	!	!
.	.	1.d	Ky-	1a	-lei-	2a/	e-
!	!	!	!	!	!	!LO:TX:t=P:problem:kreska pseudotaktowa	!
.	.	.	.	.	.	2dd\	-lei-
=48-	=48-	=48-	=48-	=48-	=48-	=48-	=48-
0r	.	.	.	2f\	-son	2ff\	.
.	.	2c\	-ri-	2.a\	.	1ee	.
.	.	1e	-e	.	.	.	.
.	.	.	.	4g\	.	.	.
*	*	*	*	*	*ij	*	*
.	.	.	.	1g\	Ky-	2cc\	.
=49-	=49-	=49-	=49-	=49-	=49-	=49-	=49-
!LO:TX:t=P:problem:kreska pseudotaktowa	!	!LO:TX:t=P:problem:kreska pseudotaktowa	!	!	!	!	!
1r	.	1d	e-	.	.	1dd	.
!	!	!	!	!LO:TX:t=P:problem:kreska pseudotaktowa	!	!	!
.	.	.	.	2f\	-ri-	.	.
!	!	!	!	!	!	!LO:TX:t=P:problem:kreska pseudotaktowa	!
1.G	Ky-	2G/	.	1.g	-e	1b	-son
.	.	1d\	-lei-	.	.	.	.
=50-	=50-	=50-	=50-	=50-	=50-	=50-	=50-
.	.	.	.	.	.	2rg	.
2F/	-ri-	2f\	.	2.c/	e-	1a	Ky-
1A	-e	2e\	.	.	.	.	.
.	.	.	.	4d/	-lei-	.	.
.	.	2c\	.	4e/	.	2cc\	-ri-
!	!	!	!	!LO:SIC:v:custos:g	!	!	!
!	!	!	!	!LO:TX:t=P:problem:kreska pseudotaktowa	!	!	!
.	.	.	.	4f/	.	.	.
!	!	!	!	!LO:LB:g=original	!	!	!
=51-	=51-	=51-	=51-	=51-	=51-	=51-	=51-
1G	.	2.d\	.	2g,\	-son	2b/	-e
*	*	*	*	*	*Xij	*	*
!	!	!	!	!	!	!LO:SIC:v:custos:a	!
!	!	!	!	!	!	!LO:TX:t=P:problem:kreska pseudotaktowa	!
.	.	.	.	1d	Ky-	2g/	.
.	.	4e\	.	.	.	.	.
!	!	!	!	!	!	!LO:LB:g=original	!
2D/	e-	2f\	.	.	.	0a	.
1A\	-lei-	2e\	.	2c/	-ri-	.	.
=52-	=52-	=52-	=52-	=52-	=52-	=52-	=52-
!	!	!LO:TX:t=P:problem:kreska pseudotaktowa	!	!	!	!	!
.	.	1A	-son	1e	-e	.	.
2c\	.	.	.	.	.	.	.
!	!	!	!	!LO:TX:t=P:problem:kreska pseudotaktowa	!	!	!
2B\	.	2r	.	1d	eley-	1b	e-
*	*	*	*ij	*	*	*	*
2G/	.	1d\	e-	.	.	.	.
=53-	=53-	=53-	=53-	=53-	=53-	=53-	=53-
!LO:TX:t=P:problem:kreska pseudotaktowa	!	!	!	!LO:TX:t=P:problem:cezura na 1. linii	!	!	!
1A	-son	.	.	2A,/	-son	2a/	-lei-
.	.	2c\	-lei-	1a	.	2.cc\	.
1r	.	1e	.	.	.	.	.
.	.	.	.	.	.	4b/	.
.	.	.	.	1g\	.	4a/	.
!	!	!	!	!	!	!LO:TX:t=P:problem:kreska pseudotaktowa	!
.	.	.	.	.	.	4g/	.
=54-	=54-	=54-	=54-	=54-	=54-	=54-	=54-
2r	.	1d	.	.	.	0a	.
*	*ij	*	*	*	*	*	*
1d	e-	.	.	2f\	.	.	.
*	*	*	*	*	*ij	*	*
!	!	!LO:TX:t=P:problem:kreska pseudotaktowa	!	!LO:TX:t=P:problem:kreska pseudotaktowa	!	!	!
.	.	1A	-son	1e	Ky-	.	.
*	*	*	*Xij	*	*	*	*
!LO:TX:t=P:problem:kreska pseudotaktowa	!	!	!	!	!	!	!
2c\	-lei-	.	.	.	.	.	.
=55-	=55-	=55-	=55-	=55-	=55-	=55-	=55-
2B\	.	0r	.	2.d/	-ri-	1b	.
2G/	.	.	.	.	.	.	.
.	.	.	.	4e/	-e	.	.
!LO:TX:t=P:problem:kreska pseudotaktowa	!	!	!	!	!	!	!
1A	-son	.	.	2f\	.	4a/	.
*	*Xij	*	*	*	*	*	*
.	.	.	.	.	.	4b/	.
.	.	.	.	1e\	e-	4cc/	.
!	!	!	!	!	!	!LO:TX:t=P:problem:kreska pseudotaktowa	!
.	.	.	.	.	.	4dd/	.
=56-	=56-	=56-	=56-	=56-	=56-	=56-	=56-
00r	.	2r	.	.	.	2ee\	.
!	!	!	!	!LO:TX:t=P:problem:kreska pseudotaktowa	!	!	!
.	.	1d	Ky-	(<2.a\	-ley-	2.ff\	.
.	.	.	.	4g\)	.	4ee\	.
.	.	2c/	-ri-	2e\	.	1ee\	.
=57-	=57-	=57-	=57-	=57-	=57-	=57-	=57-
.	.	2B/	-e	2f\	.	.	.
.	.	2G/	elei-	2g\	.	1dd	.
!	!	!LO:TX:t=P:problem:kreska pseudotaktowa	!	!	!	!	!
.	.	1A	-ſon	1e	.	.	.
.	.	.	.	.	.	2cc\	.
=58-	=58-	=58-	=58-	=58-	=58-	=58-	=58-
!	!	!	!	!LO:TX:t=P:problem:kreska pseudotaktowa	!	!LO:TX:t=P:problem:kreska pseudotaktowa	!
2r	.	2r	.	1d	-son	1dd	-son
*	*	*	*	*	*Xij	*	*
*	*	*	*ij	*	*	*	*
1G	Ky-	1d	e-	.	.	.	.
.	.	.	.	0r	.	2rg	.
2F/	-ri-	2f\	-lei-	.	.	1a/	Ky-
=59-	=59-	=59-	=59-	=59-	=59-	=59-	=59-
1A	-e	2e\	.	.	.	.	.
.	.	2c\	.	.	.	2cc\	-ri-
1G	.	0d	.	2r	.	2b/	-e
.	.	.	.	1g\	Ky-	2g/	.
=60-	=60-	=60-	=60-	=60-	=60-	=60-	=60-
!	!	!	!	!	!	!LO:TX:t=P:problem:kreska pseudotaktowa	!
2D/	e-	.	.	.	.	0a	.
1d	.	.	.	2f\	-ri-	.	.
!	!	!LO:TX:t=P:problem:kreska pseudotaktowa	!	!	!	!	!
.	.	1A	-ſon	1a	e-	.	.
*	*	*	*Xij	*	*	*	*
2.c\	.	.	.	.	.	.	.
=61-	=61-	=61-	=61-	=61-	=61-	=61-	=61-
.	.	2r	.	1g	-lei-	1r	.
8B\L	.	.	.	.	.	.	.
8A\J	.	.	.	.	.	.	.
1G	-lei-	1d	Ky-	.	.	.	.
!	!	!	!	!LO:TX:t=P:problem:kreska pseudotaktowa	!	!	!
.	.	.	.	1d	-son	2rg	.
2D/	.	2f\	-ri-	.	.	1a/	Ky-
=62-	=62-	=62-	=62-	=62-	=62-	=62-	=62-
1A	.	2e\	-e	1r	.	.	.
!	!	!	!	!	!	!LO:TX:t=P:problem:kreska pseudotaktowa	!
.	.	2c\	e-	.	.	2cc\	-ri-
!LO:TX:t=P:problem:kreska pseudotaktowa	!	!	!	!	!	!	!
1G	-son	0d	.	2rc	.	2b/	-e
*	*	*	*	*	*ij	*	*
.	.	.	.	2d/	Ky-	2g/	.
=63-	=63-	=63-	=63-	=63-	=63-	=63-	=63-
2rG	.	.	.	2.f\	-ri-	1a	e-
*	*ij	*	*	*	*	*	*
1D	e-	.	.	.	.	.	.
.	.	.	.	4e/	-e-	.	.
.	.	1A	-lei-	2d/	.	2f/	-lei-
2F/	.	.	.	2c/	-lei-	1a/	.
=64-	=64-	=64-	=64-	=64-	=64-	=64-	=64-
2E/	.	2B/	.	1e	.	.	.
2C/	.	2c/	.	.	.	1g	.
1D	-lei-	1A	.	1d	.	.	.
.	.	.	.	.	.	2f#X/	.
=65-	=65-	=65-	=65-	=65-	=65-	=65-	=65-
0G;>	-son	0B;>	-son	0d;>	-son	0g;>	-son.
*	*Xij	*	*	*	*Xij	*	*
==	==	==	==	==	==	==	==
*-	*-	*-	*-	*-	*-	*-	*-
!!!system-decoration: [(s1,s2,s3,s4)]
!!!RDF**kern: > = above
!!!RDF**kern: < = below
!!!EED: Antoni Szymański
!!!EST: 2021-03-16
!!!ENC: Kamil Watkowski
!!!END: 2021-02-27
